X:9618
T:Lilting Fisherman, The
R:jig
Z:id:hn-jig-268
M:6/8
K:G
dBG GBd|gfg ege|dBG GFG|AFD cBA|
dBG GBd|gfg ege|dBG FGA|BGG G2B:|
K:D
|:ABA AFA|fgf f2e|dfe dcB|ABA AFG|
~A3 AFA|BGB B2d|cec ABc|1 dfe dcB:|2 dfe d2e||
